X: 1
T: The Sutherland Reel
T: 8x40R 3C (RSCDS Bk 29)
P: Sutherland's Reel [play ABABB]
C: trad., Muriel Johnstone arr.
M: 2/4
L: 1/8
K: A
f|"A"ef/g/ af|"A"ec a2|"A"ef/g/ ac|"A"e2 "D"ag/f/|"A"ef/g/ af|"A"ec a/g/f/e/|"G"dB =gB|"G"d2 fe/d/||
"A"eA cA|"A"e/a/A/B/ cc/d/|"A"e/f/e/d/ cA|"A"e2 "D"ag/f/|"A"eA/B/ cA|"A"e/a/A/B/ c>e|"G"d/B/=G/B/ d/B/=g/B/|"G"d2 f2 |]
